X: 10933
M: 2/4
L: 1/16
K: Bb
|:\
fede c2c2 | fede c2c2 |\
{c}BABc d2d2 | {c}BABc d2d2 |\
egfe dcBA | B2B2 B4 :|
|:\
f2f2 d2d2 | b2b2 f4 |\
fede c2c2 | fede c2c2 |\
{g}f2=ef d2d2 | b2b2 f4 |\
egfe dcBA | "^Fin."B2B2 HB4 :|
|:\
[M:C][L:1/8]\
d3e fgab | {a}g2g>g g2g/f/e/d/ |\
c3d egfe | {e}d2d>d d2z2 |\
d3e fgab | {a}g2g>g g3g |\
f>bag fedc | B2B>B B2"^D.C."z2 :|


